X: 1
T: The New Opera Dance
T: or Mrs Loch's Favorite
O: Gows 4th Book
B: Gows 4th Book p.22 #2
Z: 2012 John Chambers <jc:trillian.mit.edu>
M: 6/8
L: 1/8
K: D
% - - - - - - - - - -
"A"[|]A !segno!|\
"D"AdA "G"BdB | "D"AFD TD2F | "A7"E2F "D"DA,D | "Em"E2F "A7"E2A |\
"D"AdA "G"BdB | "D"AFD TD2F | "Em"E2F "D"DA,D | "A7"E2F "D"D2 H:|
"B"|: A |\
"D"f2d AFA | "G"B2d "D"F3  | "G"G>AB "D"D2D | "Em"E2F "A7"A,3 |\
"D"f2d AFA | "G"B2d "D"F2A | "Em"G>AB e2f | "A7"[ge][fd][ec] "d.S."[dB][cA][BG] |]
